dist/assets/images/icons/otr/ico-slide-7.svg

<svg width="53" height="53" viewBox="0 0 53 53" fill="none" xmlns="http://www.w3.org/2000/svg">
<circle cx="26.5" cy="26.5" r="26.5" fill="white"/>
<rect x="27.9264" y="8.31251" width="6.87518" height="0.625017" stroke="#DF0112" stroke-width="0.625017"/>
<rect x="15.426" y="12.0626" width="6.87518" height="0.625017" stroke="#0000FF" stroke-width="0.625017"/>
<mask id="path-4-inside-1" fill="white">
<path fill-rule="evenodd" clip-rule="evenodd" d="M21.3626 11.7501H16.3625V24.093C12.4688 25.184 9.61328 28.7591 9.61328 33.0012C9.61328 38.11 13.7548 42.2514 18.8635 42.2514V41.2514C14.307 41.2514 10.6133 37.5577 10.6133 33.0012C10.6133 28.4447 14.307 24.751 18.8635 24.751C20.6171 24.751 22.2415 25.2975 23.5776 26.2294L24.1497 25.4093C23.3115 24.8246 22.3718 24.3752 21.3626 24.0926V11.7501Z"/>
</mask>
<path d="M16.3625 11.7501V10.7501H15.3625V11.7501H16.3625ZM21.3626 11.7501H22.3626V10.7501H21.3626V11.7501ZM16.3625 24.093L16.6323 25.0559L17.3625 24.8514V24.093H16.3625ZM18.8635 42.2514V43.2514H19.8635V42.2514H18.8635ZM18.8635 41.2514H19.8635V40.2514H18.8635V41.2514ZM23.5776 26.2294L23.0055 27.0496L23.8257 27.6217L24.3978 26.8015L23.5776 26.2294ZM24.1497 25.4093L24.9699 25.9814L25.542 25.1612L24.7218 24.5891L24.1497 25.4093ZM21.3626 24.0926H20.3626V24.8511L21.093 25.0556L21.3626 24.0926ZM16.3625 12.7501H21.3626V10.7501H16.3625V12.7501ZM17.3625 24.093V11.7501H15.3625V24.093H17.3625ZM10.6133 33.0012C10.6133 29.2191 13.159 26.0291 16.6323 25.0559L16.0927 23.1301C11.7785 24.3388 8.61328 28.2991 8.61328 33.0012H10.6133ZM18.8635 41.2514C14.307 41.2514 10.6133 37.5577 10.6133 33.0012H8.61328C8.61328 38.6622 13.2025 43.2514 18.8635 43.2514V41.2514ZM17.8635 41.2514V42.2514H19.8635V41.2514H17.8635ZM9.61328 33.0012C9.61328 38.11 13.7548 42.2514 18.8635 42.2514V40.2514C14.8593 40.2514 11.6133 37.0054 11.6133 33.0012H9.61328ZM18.8635 23.751C13.7548 23.751 9.61328 27.8924 9.61328 33.0012H11.6133C11.6133 28.997 14.8593 25.751 18.8635 25.751V23.751ZM24.1497 25.4093C22.6512 24.364 20.8282 23.751 18.8635 23.751V25.751C20.4059 25.751 21.8317 26.2309 23.0055 27.0496L24.1497 25.4093ZM23.3295 24.8372L22.7574 25.6574L24.3978 26.8015L24.9699 25.9814L23.3295 24.8372ZM21.093 25.0556C21.9921 25.3073 22.8298 25.7079 23.5776 26.2294L24.7218 24.5891C23.7932 23.9414 22.7515 23.443 21.6322 23.1296L21.093 25.0556ZM20.3626 11.7501V24.0926H22.3626V11.7501H20.3626Z" fill="#0000FF" mask="url(#path-4-inside-1)"/>
<mask id="path-6-inside-2" fill="white">
<path fill-rule="evenodd" clip-rule="evenodd" d="M33.8632 8H28.863V19.2503L20.6956 36.752H42.0306L33.8632 19.2503V8ZM42.6132 38.0003V38.002H20.1128V41.7509H42.6134V38.0008L42.6132 38.0003Z"/>
</mask>
<path fill-rule="evenodd" clip-rule="evenodd" d="M33.8632 8H28.863V19.2503L20.6956 36.752H42.0306L33.8632 19.2503V8ZM42.6132 38.0003V38.002H20.1128V41.7509H42.6134V38.0008L42.6132 38.0003Z" fill="white"/>
<path d="M28.863 8V7H27.863V8H28.863ZM33.8632 8H34.8632V7H33.8632V8ZM28.863 19.2503L29.7692 19.6732L29.863 19.4722V19.2503H28.863ZM20.6956 36.752L19.7894 36.3291L19.1254 37.752H20.6956V36.752ZM42.0306 36.752V37.752H43.6008L42.9368 36.3291L42.0306 36.752ZM33.8632 19.2503H32.8632V19.4722L32.957 19.6732L33.8632 19.2503ZM42.6132 38.0003L43.5191 37.5769L41.6132 38.0003H42.6132ZM42.6132 38.002V39.002H43.6132V38.002H42.6132ZM20.1128 38.002V37.002H19.1128V38.002H20.1128ZM20.1128 41.7509H19.1128V42.7509H20.1128V41.7509ZM42.6134 41.7509V42.7509H43.6134V41.7509H42.6134ZM42.6134 38.0008H43.6134V37.7786L43.5193 37.5774L42.6134 38.0008ZM28.863 9H33.8632V7H28.863V9ZM29.863 19.2503V8H27.863V19.2503H29.863ZM21.6018 37.1749L29.7692 19.6732L27.9568 18.8274L19.7894 36.3291L21.6018 37.1749ZM20.6956 37.752H42.0306V35.752H20.6956V37.752ZM32.957 19.6732L41.1244 37.1749L42.9368 36.3291L34.7693 18.8274L32.957 19.6732ZM32.8632 8V19.2503H34.8632V8H32.8632ZM41.6132 38.0003V38.002H43.6132V38.0003H41.6132ZM42.6132 37.002H20.1128V39.002H42.6132V37.002ZM21.1128 41.7509V38.002H19.1128V41.7509H21.1128ZM42.6134 40.7509H20.1128V42.7509H42.6134V40.7509ZM41.6134 38.0008V41.7509H43.6134V38.0008H41.6134ZM41.7072 38.4238L41.7075 38.4243L43.5193 37.5774L43.5191 37.5769L41.7072 38.4238Z" fill="#DF0112" mask="url(#path-6-inside-2)"/>
<mask id="path-8-inside-3" fill="white">
<path fill-rule="evenodd" clip-rule="evenodd" d="M33.8632 8H28.863V19.2503L20.6956 36.752H42.0306L33.8632 19.2503V8ZM42.6132 38.0003V38.002H20.1128V41.7509H42.6134V38.0008L42.6132 38.0003Z"/>
</mask>
<path fill-rule="evenodd" clip-rule="evenodd" d="M33.8632 8H28.863V19.2503L20.6956 36.752H42.0306L33.8632 19.2503V8ZM42.6132 38.0003V38.002H20.1128V41.7509H42.6134V38.0008L42.6132 38.0003Z" fill="white"/>
<path d="M28.863 8V7H27.863V8H28.863ZM33.8632 8H34.8632V7H33.8632V8ZM28.863 19.2503L29.7692 19.6732L29.863 19.4722V19.2503H28.863ZM20.6956 36.752L19.7894 36.3291L19.1254 37.752H20.6956V36.752ZM42.0306 36.752V37.752H43.6008L42.9368 36.3291L42.0306 36.752ZM33.8632 19.2503H32.8632V19.4722L32.957 19.6732L33.8632 19.2503ZM42.6132 38.0003L43.5191 37.5769L41.6132 38.0003H42.6132ZM42.6132 38.002V39.002H43.6132V38.002H42.6132ZM20.1128 38.002V37.002H19.1128V38.002H20.1128ZM20.1128 41.7509H19.1128V42.7509H20.1128V41.7509ZM42.6134 41.7509V42.7509H43.6134V41.7509H42.6134ZM42.6134 38.0008H43.6134V37.7786L43.5193 37.5774L42.6134 38.0008ZM28.863 9H33.8632V7H28.863V9ZM29.863 19.2503V8H27.863V19.2503H29.863ZM21.6018 37.1749L29.7692 19.6732L27.9568 18.8274L19.7894 36.3291L21.6018 37.1749ZM20.6956 37.752H42.0306V35.752H20.6956V37.752ZM32.957 19.6732L41.1244 37.1749L42.9368 36.3291L34.7693 18.8274L32.957 19.6732ZM32.8632 8V19.2503H34.8632V8H32.8632ZM41.6132 38.0003V38.002H43.6132V38.0003H41.6132ZM42.6132 37.002H20.1128V39.002H42.6132V37.002ZM21.1128 41.7509V38.002H19.1128V41.7509H21.1128ZM42.6134 40.7509H20.1128V42.7509H42.6134V40.7509ZM41.6134 38.0008V41.7509H43.6134V38.0008H41.6134ZM41.7072 38.4238L41.7075 38.4243L43.5193 37.5774L43.5191 37.5769L41.7072 38.4238Z" fill="#DF0112" mask="url(#path-8-inside-3)"/>
</svg>

<svg width="53" height="53" fill="none" xmlns="http://www.w3.org/2000/svg"><circle cx="26.5" cy="26.5" r="26.5" fill="#fff"/><path stroke="#DF0112" stroke-width=".625" d="M27.926 8.313h6.875v.625h-6.875z"/><path stroke="#00F" stroke-width=".625" d="M15.426 12.063h6.875v.625h-6.875z"/><mask id="a" fill="#fff"><path fill-rule="evenodd" clip-rule="evenodd" d="M21.363 11.75h-5v12.343a9.25 9.25 0 002.501 18.158v-1a8.25 8.25 0 114.714-15.022l.572-.82a9.213 9.213 0 00-2.787-1.316V11.75z"/></mask><path d="M16.363 11.75v-1h-1v1h1zm5 0h1v-1h-1v1zm-5 12.343l.27.963.73-.205v-.758h-1zm2.5 18.158v1h1v-1h-1zm0-1h1v-1h-1v1zm4.715-15.022l-.572.82.82.573.572-.82-.82-.573zm.572-.82l.82.572.572-.82-.82-.572-.572.82zm-2.787-1.316h-1v.758l.73.205.27-.963zm-5-11.343h5v-2h-5v2zm1 11.343V11.75h-2v12.343h2zm-6.75 8.908a8.254 8.254 0 016.02-7.945l-.54-1.926c-4.315 1.209-7.48 5.17-7.48 9.871h2zm8.25 8.25a8.25 8.25 0 01-8.25-8.25h-2c0 5.661 4.59 10.25 10.25 10.25v-2zm-1 0v1h2v-1h-2zm-8.25-8.25a9.25 9.25 0 009.25 9.25v-2a7.25 7.25 0 01-7.25-7.25h-2zm9.25-9.25a9.25 9.25 0 00-9.25 9.25h2a7.25 7.25 0 017.25-7.25v-2zm5.287 1.658a9.21 9.21 0 00-5.287-1.658v2a7.21 7.21 0 014.143 1.299l1.144-1.64zm-.82-.572l-.573.82 1.64 1.145.573-.82-1.64-1.145zm-2.237.219c.9.251 1.737.652 2.485 1.173l1.144-1.64a10.214 10.214 0 00-3.09-1.46l-.539 1.927zm-.73-13.306v12.343h2V11.75h-2z" fill="#00F" mask="url(#a)"/><mask id="b" fill="#fff"><path fill-rule="evenodd" clip-rule="evenodd" d="M33.863 8h-5v11.25l-8.167 17.502H42.03L33.863 19.25V8zm8.75 30v.002h-22.5v3.749h22.5V38z"/></mask><path fill-rule="evenodd" clip-rule="evenodd" d="M33.863 8h-5v11.25l-8.167 17.502H42.03L33.863 19.25V8zm8.75 30v.002h-22.5v3.749h22.5V38z" fill="#fff"/><path d="M28.863 8V7h-1v1h1zm5 0h1V7h-1v1zm-5 11.25l.906.423.094-.2v-.223h-1zm-8.167 17.502l-.907-.423-.664 1.423h1.57v-1zm21.335 0v1h1.57l-.664-1.423-.906.423zM33.863 19.25h-1v.222l.094.201.906-.423zM42.613 38l.906-.423-1.906.423h1zm0 .002v1h1v-1h-1zm-22.5 0v-1h-1v1h1zm0 3.749h-1v1h1v-1zm22.5 0v1h1v-1h-1zm0-3.75h1v-.222l-.094-.202-.906.424zM28.863 9h5V7h-5v2zm1 10.25V8h-2v11.25h2zm-8.261 17.925l8.167-17.502-1.812-.846-8.168 17.502 1.813.846zm-.906.577H42.03v-2H20.696v2zm12.261-18.079l8.167 17.502 1.813-.846-8.168-17.502-1.812.846zM32.863 8v11.25h2V8h-2zm8.75 30v.002h2V38h-2zm1-.998h-22.5v2h22.5v-2zm-21.5 4.749v-3.749h-2v3.749h2zm21.5-1h-22.5v2h22.5v-2zm-1-2.75v3.75h2V38h-2zm.094.423l1.812-.847-1.812.847z" fill="#DF0112" mask="url(#b)"/><mask id="c" fill="#fff"><path fill-rule="evenodd" clip-rule="evenodd" d="M33.863 8h-5v11.25l-8.167 17.502H42.03L33.863 19.25V8zm8.75 30v.002h-22.5v3.749h22.5V38z"/></mask><path fill-rule="evenodd" clip-rule="evenodd" d="M33.863 8h-5v11.25l-8.167 17.502H42.03L33.863 19.25V8zm8.75 30v.002h-22.5v3.749h22.5V38z" fill="#fff"/><path d="M28.863 8V7h-1v1h1zm5 0h1V7h-1v1zm-5 11.25l.906.423.094-.2v-.223h-1zm-8.167 17.502l-.907-.423-.664 1.423h1.57v-1zm21.335 0v1h1.57l-.664-1.423-.906.423zM33.863 19.25h-1v.222l.094.201.906-.423zM42.613 38l.906-.423-1.906.423h1zm0 .002v1h1v-1h-1zm-22.5 0v-1h-1v1h1zm0 3.749h-1v1h1v-1zm22.5 0v1h1v-1h-1zm0-3.75h1v-.222l-.094-.202-.906.424zM28.863 9h5V7h-5v2zm1 10.25V8h-2v11.25h2zm-8.261 17.925l8.167-17.502-1.812-.846-8.168 17.502 1.813.846zm-.906.577H42.03v-2H20.696v2zm12.261-18.079l8.167 17.502 1.813-.846-8.168-17.502-1.812.846zM32.863 8v11.25h2V8h-2zm8.75 30v.002h2V38h-2zm1-.998h-22.5v2h22.5v-2zm-21.5 4.749v-3.749h-2v3.749h2zm21.5-1h-22.5v2h22.5v-2zm-1-2.75v3.75h2V38h-2zm.094.423l1.812-.847-1.812.847z" fill="#DF0112" mask="url(#c)"/></svg>
